src/assets/icons/numbers,fancy,digital-00.svg

<svg width="48" height="48" viewBox="0 0 48 48" fill="none" xmlns="http://www.w3.org/2000/svg">
<path opacity="0.2" d="M17.7071 36.2929C17.8946 36.1054 18.149 36 18.4142 36H29.5858C29.851 36 30.1054 36.1054 30.2929 36.2929L31.6464 37.6464C31.8417 37.8417 31.8417 38.1583 31.6464 38.3536L30.2929 39.7071C30.1054 39.8946 29.851 40 29.5858 40H18.4142C18.149 40 17.8946 39.8946 17.7071 39.7071L16.3536 38.3536C16.1583 38.1583 16.1583 37.8417 16.3536 37.6464L17.7071 36.2929Z" fill="black"/>
<path opacity="0.2" d="M17.7071 8.29289C17.8946 8.10536 18.149 8 18.4142 8H29.5858C29.851 8 30.1054 8.10536 30.2929 8.29289L31.6464 9.64645C31.8417 9.84171 31.8417 10.1583 31.6464 10.3536L30.2929 11.7071C30.1054 11.8946 29.851 12 29.5858 12H18.4142C18.149 12 17.8946 11.8946 17.7071 11.7071L16.3536 10.3536C16.1583 10.1583 16.1583 9.84171 16.3536 9.64645L17.7071 8.29289Z" fill="black"/>
<path opacity="0.2" d="M17.7071 22.2929C17.8946 22.1054 18.149 22 18.4142 22H29.5858C29.851 22 30.1054 22.1054 30.2929 22.2929L31.6464 23.6464C31.8417 23.8417 31.8417 24.1583 31.6464 24.3536L30.2929 25.7071C30.1054 25.8946 29.851 26 29.5858 26H18.4142C18.149 26 17.8946 25.8946 17.7071 25.7071L16.3536 24.3536C16.1583 24.1583 16.1583 23.8417 16.3536 23.6464L17.7071 22.2929Z" fill="black"/>
<path opacity="0.2" d="M34.7071 12.7071C34.8946 12.8946 35 13.149 35 13.4142L35 20.5858C35 20.851 34.8946 21.1054 34.7071 21.2929L33.3536 22.6464C33.1583 22.8417 32.8417 22.8417 32.6464 22.6464L31.2929 21.2929C31.1054 21.1054 31 20.851 31 20.5858L31 13.4142C31 13.149 31.1054 12.8946 31.2929 12.7071L32.6464 11.3536C32.8417 11.1583 33.1583 11.1583 33.3536 11.3536L34.7071 12.7071Z" fill="black"/>
<path opacity="0.2" d="M16.7071 12.7071C16.8946 12.8946 17 13.149 17 13.4142L17 20.5858C17 20.851 16.8946 21.1054 16.7071 21.2929L15.3536 22.6464C15.1583 22.8417 14.8417 22.8417 14.6464 22.6464L13.2929 21.2929C13.1054 21.1054 13 20.851 13 20.5858L13 13.4142C13 13.149 13.1054 12.8946 13.2929 12.7071L14.6464 11.3536C14.8417 11.1583 15.1583 11.1583 15.3536 11.3536L16.7071 12.7071Z" fill="black"/>
<path opacity="0.2" d="M34.7071 26.7071C34.8946 26.8946 35 27.149 35 27.4142L35 34.5858C35 34.851 34.8946 35.1054 34.7071 35.2929L33.3536 36.6464C33.1583 36.8417 32.8417 36.8417 32.6464 36.6464L31.2929 35.2929C31.1054 35.1054 31 34.851 31 34.5858L31 27.4142C31 27.149 31.1054 26.8946 31.2929 26.7071L32.6464 25.3536C32.8417 25.1583 33.1583 25.1583 33.3536 25.3536L34.7071 26.7071Z" fill="black"/>
<path opacity="0.2" d="M16.7071 26.7071C16.8946 26.8946 17 27.149 17 27.4142L17 34.5858C17 34.851 16.8946 35.1054 16.7071 35.2929L15.3536 36.6464C15.1583 36.8417 14.8417 36.8417 14.6464 36.6464L13.2929 35.2929C13.1054 35.1054 13 34.851 13 34.5858L13 27.4142C13 27.149 13.1054 26.8946 13.2929 26.7071L14.6464 25.3536C14.8417 25.1583 15.1583 25.1583 15.3536 25.3536L16.7071 26.7071Z" fill="black"/>
<path d="M17.7071 36.2929C17.8946 36.1054 18.149 36 18.4142 36H29.5858C29.851 36 30.1054 36.1054 30.2929 36.2929L31.6464 37.6464C31.8417 37.8417 31.8417 38.1583 31.6464 38.3536L30.2929 39.7071C30.1054 39.8946 29.851 40 29.5858 40H18.4142C18.149 40 17.8946 39.8946 17.7071 39.7071L16.3536 38.3536C16.1583 38.1583 16.1583 37.8417 16.3536 37.6464L17.7071 36.2929Z" fill="black"/>
<path d="M17.7071 8.29289C17.8946 8.10536 18.149 8 18.4142 8H29.5858C29.851 8 30.1054 8.10536 30.2929 8.29289L31.6464 9.64645C31.8417 9.84171 31.8417 10.1583 31.6464 10.3536L30.2929 11.7071C30.1054 11.8946 29.851 12 29.5858 12H18.4142C18.149 12 17.8946 11.8946 17.7071 11.7071L16.3536 10.3536C16.1583 10.1583 16.1583 9.84171 16.3536 9.64645L17.7071 8.29289Z" fill="black"/>
<path d="M34.7071 12.7071C34.8946 12.8946 35 13.149 35 13.4142L35 20.5858C35 20.851 34.8946 21.1054 34.7071 21.2929L33.3536 22.6464C33.1583 22.8417 32.8417 22.8417 32.6464 22.6464L31.2929 21.2929C31.1054 21.1054 31 20.851 31 20.5858L31 13.4142C31 13.149 31.1054 12.8946 31.2929 12.7071L32.6464 11.3536C32.8417 11.1583 33.1583 11.1583 33.3536 11.3536L34.7071 12.7071Z" fill="black"/>
<path d="M16.7071 12.7071C16.8946 12.8946 17 13.149 17 13.4142L17 20.5858C17 20.851 16.8946 21.1054 16.7071 21.2929L15.3536 22.6464C15.1583 22.8417 14.8417 22.8417 14.6464 22.6464L13.2929 21.2929C13.1054 21.1054 13 20.851 13 20.5858L13 13.4142C13 13.149 13.1054 12.8946 13.2929 12.7071L14.6464 11.3536C14.8417 11.1583 15.1583 11.1583 15.3536 11.3536L16.7071 12.7071Z" fill="black"/>
<path d="M34.7071 26.7071C34.8946 26.8946 35 27.149 35 27.4142L35 34.5858C35 34.851 34.8946 35.1054 34.7071 35.2929L33.3536 36.6464C33.1583 36.8417 32.8417 36.8417 32.6464 36.6464L31.2929 35.2929C31.1054 35.1054 31 34.851 31 34.5858L31 27.4142C31 27.149 31.1054 26.8946 31.2929 26.7071L32.6464 25.3536C32.8417 25.1583 33.1583 25.1583 33.3536 25.3536L34.7071 26.7071Z" fill="black"/>
<path d="M16.7071 26.7071C16.8946 26.8946 17 27.149 17 27.4142L17 34.5858C17 34.851 16.8946 35.1054 16.7071 35.2929L15.3536 36.6464C15.1583 36.8417 14.8417 36.8417 14.6464 36.6464L13.2929 35.2929C13.1054 35.1054 13 34.851 13 34.5858L13 27.4142C13 27.149 13.1054 26.8946 13.2929 26.7071L14.6464 25.3536C14.8417 25.1583 15.1583 25.1583 15.3536 25.3536L16.7071 26.7071Z" fill="black"/>
</svg>

<svg xmlns="http://www.w3.org/2000/svg" width="48" height="48" fill="none" viewBox="0 0 48 48">
  <path fill="#000" d="M17.707 36.293a1 1 0 01.707-.293h11.172a1 1 0 01.707.293l1.353 1.353a.5.5 0 010 .708l-1.353 1.353a1 1 0 01-.707.293H18.414a1 1 0 01-.707-.293l-1.353-1.353a.5.5 0 010-.708l1.353-1.353zM17.707 8.293A1 1 0 0118.414 8h11.172a1 1 0 01.707.293l1.353 1.353a.5.5 0 010 .708l-1.353 1.353a1 1 0 01-.707.293H18.414a1 1 0 01-.707-.293l-1.353-1.353a.5.5 0 010-.708l1.353-1.353zM17.707 22.293a1 1 0 01.707-.293h11.172a1 1 0 01.707.293l1.353 1.353a.5.5 0 010 .708l-1.353 1.353a1 1 0 01-.707.293H18.414a1 1 0 01-.707-.293l-1.353-1.353a.5.5 0 010-.708l1.353-1.353zM34.707 12.707a1 1 0 01.293.707v7.172a1 1 0 01-.293.707l-1.353 1.353a.5.5 0 01-.708 0l-1.353-1.353a1 1 0 01-.293-.707v-7.172a1 1 0 01.293-.707l1.353-1.353a.5.5 0 01.708 0l1.353 1.353zM16.707 12.707a1 1 0 01.293.707v7.172a1 1 0 01-.293.707l-1.353 1.353a.5.5 0 01-.708 0l-1.353-1.353a1 1 0 01-.293-.707v-7.172a1 1 0 01.293-.707l1.353-1.353a.5.5 0 01.708 0l1.353 1.353zM34.707 26.707a1 1 0 01.293.707v7.172a1 1 0 01-.293.707l-1.353 1.353a.5.5 0 01-.708 0l-1.353-1.353a1 1 0 01-.293-.707v-7.172a1 1 0 01.293-.707l1.353-1.353a.5.5 0 01.708 0l1.353 1.353zM16.707 26.707a1 1 0 01.293.707v7.172a1 1 0 01-.293.707l-1.353 1.353a.5.5 0 01-.708 0l-1.353-1.353a1 1 0 01-.293-.707v-7.172a1 1 0 01.293-.707l1.353-1.353a.5.5 0 01.708 0l1.353 1.353z" opacity=".2"/>
  <g>
    <path fill="#000" d="M17.707 36.293a1 1 0 01.707-.293h11.172a1 1 0 01.707.293l1.353 1.353a.5.5 0 010 .708l-1.353 1.353a1 1 0 01-.707.293H18.414a1 1 0 01-.707-.293l-1.353-1.353a.5.5 0 010-.708l1.353-1.353zM17.707 8.293A1 1 0 0118.414 8h11.172a1 1 0 01.707.293l1.353 1.353a.5.5 0 010 .708l-1.353 1.353a1 1 0 01-.707.293H18.414a1 1 0 01-.707-.293l-1.353-1.353a.5.5 0 010-.708l1.353-1.353zM34.707 12.707a1 1 0 01.293.707v7.172a1 1 0 01-.293.707l-1.353 1.353a.5.5 0 01-.708 0l-1.353-1.353a1 1 0 01-.293-.707v-7.172a1 1 0 01.293-.707l1.353-1.353a.5.5 0 01.708 0l1.353 1.353zM16.707 12.707a1 1 0 01.293.707v7.172a1 1 0 01-.293.707l-1.353 1.353a.5.5 0 01-.708 0l-1.353-1.353a1 1 0 01-.293-.707v-7.172a1 1 0 01.293-.707l1.353-1.353a.5.5 0 01.708 0l1.353 1.353zM34.707 26.707a1 1 0 01.293.707v7.172a1 1 0 01-.293.707l-1.353 1.353a.5.5 0 01-.708 0l-1.353-1.353a1 1 0 01-.293-.707v-7.172a1 1 0 01.293-.707l1.353-1.353a.5.5 0 01.708 0l1.353 1.353zM16.707 26.707a1 1 0 01.293.707v7.172a1 1 0 01-.293.707l-1.353 1.353a.5.5 0 01-.708 0l-1.353-1.353a1 1 0 01-.293-.707v-7.172a1 1 0 01.293-.707l1.353-1.353a.5.5 0 01.708 0l1.353 1.353z"/>
  </g>
</svg>
